**kern	**silbe	**harmony	**phrase	**leadinstrument	**rhyme	**timestamp	**harte
*ICvox	*	*M4/4	*	*	*	*	*M4/4
*VRlead	*	*	*	*	*	*	*
*Hstimme	*	*	*	*	*	*	*
*B-:	*	*B-:	*	*	*	*	*B-:
*M4/4	*	*	*	*	*	*	*
*clefG2	*	*	*	*	*	*	*
r;	.	1r;	.	r	.	0	N.C.
=1	=1	=1	=1	=1	=1	=1	=1
*>Letter>A	*>Letter>A	*>Letter>A	*>Letter>A	*>Letter>A	*>Letter>A	*>Letter>A	*>Letter>A
*>Label>Intro	*>Label>Intro	*>Label>Intro	*>Label>Intro	*>Label>Intro	*>Label>Intro	*>Label>Intro	*>Label>Intro
1r	.	1FM	newline	r	.	0.348	F:1
=2	=2	=2	=2	=2	=2	=2	=2
1r	.	1FM	.	r	.	1.683	F:1
=3	=3	=3	=3	=3	=3	=3	=3
1r	.	1B-M	newline	r	.	3.019	B-:1
=4	=4	=4	=4	=4	=4	=4	=4
1r	.	1N	.	r	.	4.326	N.C.
=5	=5	=5	=5	=5	=5	=5	=5
1r	.	1FM	.	r	.	5.633	F:1
=6	=6	=6	=6	=6	=6	=6	=6
1r	.	1FM	.	r	.	6.94	F:1
=7	=7	=7	=7	=7	=7	=7	=7
1r	.	1B-M	newline	harmonica	.	8.247	B-:maj
=8	=8	=8	=8	=8	=8	=8	=8
1r	.	1B-M	.	harmonica	.	9.546	B-:maj
=9	=9	=9	=9	=9	=9	=9	=9
1r	.	1B-M	.	harmonica	.	10.845	B-:maj
=10	=10	=10	=10	=10	=10	=10	=10
2r	.	1B-M	.	harmonica	.	12.145	B-:maj
4f	There's	.	.	.	.	.	.
4g	a	.	.	.	.	.	.
=11	=11	=11	=11	=11	=11	=11	=11
*>Letter>B	*>Letter>B	*>Letter>B	*>Letter>B	*>Letter>B	*>Letter>B	*>Letter>B	*>Letter>B
*>Label>Verse	*>Label>Verse	*>Label>Verse	*>Label>Verse	*>Label>Verse	*>Label>Verse	*>Label>Verse	*>Label>Verse
4b-	lov-	1B-M	newline	voice	.	13.444	B-:maj
8b-	-ing	.	.	.	.	.	.
[8cc	in	.	.	.	.	.	.
8cc]	_	.	.	.	.	.	.
4dd	your	.	.	.	.	.	.
[8cc	eyes	.	.	.	.	.	.
=12	=12	=12	=12	=12	=12	=12	=12
4.cc]	_	1FM	.	voice	.	14.755	F:maj
8dd	all	.	.	.	.	.	.
4cc	_	.	.	.	.	.	.
8b-	the	.	.	.	.	.	.
8b-	way	.	.	.	A	.	.
=13	=13	=13	=13	=13	=13	=13	=13
8cc	_	1B-M	.	voice	.	16.067	B-:maj
[8b-	_	.	.	.	.	.	.
2.b-]	_	.	.	.	.	.	.
=14	=14	=14	=14	=14	=14	=14	=14
4r	.	1B-M	.	voice	.	17.378	B-:maj
8r	.	.	.	.	.	.	.
[8f	if	.	.	.	.	.	.
8f]	_	.	.	.	.	.	.
8g	I	.	.	.	.	.	.
4f	_	.	.	.	.	.	.
=15	=15	=15	=15	=15	=15	=15	=15
4b-	lis-	1B-M	newline	voice	.	18.689	B-:maj
8b-	-ten	.	.	.	.	.	.
[8cc	to	.	.	.	.	.	.
8cc]	_	.	.	.	.	.	.
4dd	your	.	.	.	.	.	.
[8cc	lies	.	.	.	.	.	.
=16	=16	=16	=16	=16	=16	=16	=16
4.cc]	_	1FM	.	voice	.	19.987	F:maj
8dd	would	.	.	.	.	.	.
4cc	_	.	.	.	.	.	.
4b-	you	.	.	.	.	.	.
=17	=17	=17	=17	=17	=17	=17	=17
1b-	say	1B-M	.	voice	A	21.285	B-:maj
=18	=18	=18	=18	=18	=18	=18	=18
4r	.	1B-M	.	voice	.	22.584	B-:maj
8r	.	.	.	.	.	.	.
[8dd	I'm	.	.	.	.	.	.
4dd]	_	.	.	.	.	.	.
4b-	a	.	.	.	.	.	.
=19	=19	=19	=19	=19	=19	=19	=19
1b-	man	1E-M	newline	voice	.	23.882	E-:maj
=20	=20	=20	=20	=20	=20	=20	=20
4r	.	1E-M	.	voice	.	25.194	E-:maj
8b-	with	.	.	.	.	.	.
[8a	out	.	.	.	.	.	.
4a]	_	.	.	.	.	.	.
4b-	con	.	.	.	.	.	.
=21	=21	=21	=21	=21	=21	=21	=21
4.cc	vic	1FM	.	voice	(B	26.506	F:maj
8cc	tion	.	.	.	b)	.	.
2dd	_	.	.	.	.	.	.
=22	=22	=22	=22	=22	=22	=22	=22
4r	.	1FM	.	voice	.	27.818	F:maj
8r	.	.	.	.	.	.	.
[8dd	I'm	.	.	.	.	.	.
4dd]	_	.	.	.	.	.	.
4b-	a	.	.	.	.	.	.
=23	=23	=23	=23	=23	=23	=23	=23
4cc	man	1E-M	newline	voice	.	29.131	E-:maj
2.b-	_	.	.	.	.	.	.
=24	=24	=24	=24	=24	=24	=24	=24
4r	.	1E-M	.	voice	.	30.438	E-:maj
8b-	who	.	.	.	.	.	.
[8a	does-	.	.	.	.	.	.
4a]	_	.	.	.	.	.	.
4b-	-n't	.	.	.	.	.	.
=25	=25	=25	=25	=25	=25	=25	=25
1cc	know	1FM	.	voice	C	31.745	F:maj
=26	=26	=26	=26	=26	=26	=26	=26
4r	.	1FM	.	voice	.	33.052	F:maj
8r	.	.	.	.	.	.	.
4.dd	how	.	.	.	.	.	.
4cc	to	.	.	.	.	.	.
=27	=27	=27	=27	=27	=27	=27	=27
4cc	sell	1E-M	newline	voice	.	34.359	E-:maj
2.b-	_	.	.	.	.	.	.
=28	=28	=28	=28	=28	=28	=28	=28
4r	.	1E-M	.	voice	.	35.656	E-:maj
8b-	a	.	.	.	.	.	.
4.a	con-	.	.	.	.	.	.
4b-	-tra-	.	.	.	.	.	.
=29	=29	=29	=29	=29	=29	=29	=29
4.cc	-dic-	1FM	.	voice	(B	36.953	F:maj
8cc	-tion	.	.	.	b)	.	.
2dd	_	.	.	.	.	.	.
=30	=30	=30	=30	=30	=30	=30	=30
4r	.	1FM	.	voice	.	38.25	F:maj
8dd	you	.	.	.	.	.	.
4.cc	come	.	.	.	.	.	.
4b-	and	.	.	.	.	.	.
=31	=31	=31	=31	=31	=31	=31	=31
1b-	go	1Cmm	newline	voice	C	39.547	C:min7
=32	=32	=32	=32	=32	=32	=32	=32
4r	.	1Cmm	.	voice	.	40.87	C:min7
8dd	you	.	.	.	.	.	.
4.cc	come	.	.	.	.	.	.
4b-	and	.	.	.	.	.	.
=33	=33	=33	=33	=33	=33	=33	=33
1b-	go	1Gm	.	voice	C	42.193	G:min
=34	=34	=34	=34	=34	=34	=34	=34
4a	_	1FM	.	voice	.	43.515	F:maj
2r	.	.	.	.	.	.	.
4r	.	.	.	.	.	.	.
=35	=35	=35	=35	=35	=35	=35	=35
*>Letter>C	*>Letter>C	*>Letter>C	*>Letter>C	*>Letter>C	*>Letter>C	*>Letter>C	*>Letter>C
*>Label>Chorus	*>Label>Chorus	*>Label>Chorus	*>Label>Chorus	*>Label>Chorus	*>Label>Chorus	*>Label>Chorus	*>Label>Chorus
8dd	kar-	1B-M	newline	voice	.	44.838	B-:maj
8dd	-ma	.	.	.	.	.	.
8dd	kar-	.	.	.	.	.	.
8dd	-ma	.	.	.	.	.	.
8dd	kar-	.	.	.	.	.	.
8dd	-ma	.	.	.	.	.	.
8dd	kar-	.	.	.	.	.	.
8dd	-ma	.	.	.	.	.	.
=36	=36	=36	=36	=36	=36	=36	=36
8cc	kar-	1FMM	.	voice	.	46.122	F:maj7/3
8cc	-ma	.	.	.	.	.	.
8cc	cha-	.	.	.	.	.	.
8cc	-me-	.	.	.	.	.	.
4dd	_	.	.	.	.	.	.
8cc	-le-	.	.	.	.	.	.
8b-	_	.	.	.	.	.	.
=37	=37	=37	=37	=37	=37	=37	=37
1b-	-on	1Gm	.	voice	.	47.407	G:min
=38	=38	=38	=38	=38	=38	=38	=38
4r	.	1Gm	.	voice	.	48.691	G:min
8b-	you	.	.	.	.	.	.
4.a	come	.	.	.	.	.	.
4b-	and	.	.	.	.	.	.
=39	=39	=39	=39	=39	=39	=39	=39
1cc	go	1Cmm	newline	voice	C	49.976	C:min7
=40	=40	=40	=40	=40	=40	=40	=40
4r	.	1Cmm	.	voice	.	51.268	C:min7
8dd	you	.	.	.	.	.	.
8dd	come-	.	.	.	.	.	.
4cc	_	.	.	.	.	.	.
4b-	-and	.	.	.	.	.	.
=41	=41	=41	=41	=41	=41	=41	=41
[2b-	go-	1FM	.	voice	C	52.561	F:sus4
8b-]	_	.	.	.	.	.	.
8cc	_	.	.	.	.	.	.
4dd	_	.	.	.	.	.	.
=42	=42	=42	=42	=42	=42	=42	=42
2cc	_	1FM	.	voice	.	53.853	F:maj
2r	.	.	.	.	.	.	.
=43	=43	=43	=43	=43	=43	=43	=43
8dd	-lov-	1B-M	newline	voice	.	55.146	B-:maj
8dd	-ing	.	.	.	.	.	.
8dd	would	.	.	.	.	.	.
8dd	be	.	.	.	.	.	.
8dd	ea-	.	.	.	.	.	.
8dd	-sy	.	.	.	.	.	.
8dd	if	.	.	.	.	.	.
8dd	your	.	.	.	.	.	.
=44	=44	=44	=44	=44	=44	=44	=44
8cc	co-	1Dmm	.	voice	.	56.465	D:min7
8cc	-lors	.	.	.	.	.	.
8cc	were	.	.	.	.	.	.
8cc	like	.	.	.	.	.	.
4dd	_	.	.	.	.	.	.
8cc	my	.	.	.	.	.	.
8b-	_	.	.	.	.	.	.
=45	=45	=45	=45	=45	=45	=45	=45
1b-	dreams	1Gm	.	voice	D	57.784	G:min
=46	=46	=46	=46	=46	=46	=46	=46
4r	.	1Gm	.	voice	.	59.103	G:min
4b-	red	.	.	.	.	.	.
4a	gold	.	.	.	.	.	.
4b-	and	.	.	.	.	.	.
=47	=47	=47	=47	=47	=47	=47	=47
1cc	green	1Cmm	newline	voice	D	60.422	C:min7
=48	=48	=48	=48	=48	=48	=48	=48
4r	.	1Cmm	.	voice	.	61.721	C:min7
4dd	red	.	.	.	.	.	.
4cc	gold	.	.	.	.	.	.
4b-	and	.	.	.	.	.	.
=49	=49	=49	=49	=49	=49	=49	=49
1b-	green	1FM	.	voice	D	63.02	F:sus4
=50	=50	=50	=50	=50	=50	=50	=50
2r	.	1FM	.	voice	.	64.319	F:maj
8f	did-	.	.	.	.	.	.
4.g	-n't	.	.	.	.	.	.
=51	=51	=51	=51	=51	=51	=51	=51
*>Letter>B	*>Letter>B	*>Letter>B	*>Letter>B	*>Letter>B	*>Letter>B	*>Letter>B	*>Letter>B
*>Label>Verse	*>Label>Verse	*>Label>Verse	*>Label>Verse	*>Label>Verse	*>Label>Verse	*>Label>Verse	*>Label>Verse
4b-	hear	1B-M	newline	voice	.	65.618	B-:maj
8b-	your	.	.	.	.	.	.
[8cc	wick-	.	.	.	.	.	.
8cc]	_	.	.	.	.	.	.
4dd	-ed	.	.	.	.	.	.
[8cc	words	.	.	.	.	.	.
=52	=52	=52	=52	=52	=52	=52	=52
4.cc]	_	1FM	.	voice	.	66.928	F:maj
8dd	ev-	.	.	.	.	.	.
4cc	_	.	.	.	.	.	.
8b-	-ry	.	.	.	.	.	.
8b-	day	.	.	.	A	.	.
=53	=53	=53	=53	=53	=53	=53	=53
8cc	_	1B-M	.	voice	.	68.239	B-:maj
[8b-	_	.	.	.	.	.	.
2.b-]	_	.	.	.	.	.	.
=54	=54	=54	=54	=54	=54	=54	=54
4r	.	1B-M	.	voice	.	69.549	B-:maj
8r	.	.	.	.	.	.	.
[8f	and	.	.	.	.	.	.
8f]	_	.	.	.	.	.	.
8g	you	.	.	.	.	.	.
4f	_	.	.	.	.	.	.
=55	=55	=55	=55	=55	=55	=55	=55
4b-	used	1B-M	newline	voice	.	70.86	B-:maj
8b-	to	.	.	.	.	.	.
[8cc	be	.	.	.	.	.	.
8cc]	_	.	.	.	.	.	.
4dd	so	.	.	.	.	.	.
[8cc	sweet	.	.	.	.	.	.
=56	=56	=56	=56	=56	=56	=56	=56
4.cc]	_	1FM	.	voice	.	72.158	F:maj
8dd	I	.	.	.	.	.	.
4cc	heard	.	.	.	.	.	.
4b-	you	.	.	.	.	.	.
=57	=57	=57	=57	=57	=57	=57	=57
1b-	say	1B-M	.	voice	A	73.457	B-:maj
=58	=58	=58	=58	=58	=58	=58	=58
4r	.	1B-M	.	voice	.	74.756	B-:maj
8r	.	.	.	.	.	.	.
[8dd	that	.	.	.	.	.	.
4dd]	_	.	.	.	.	.	.
4b-	my	.	.	.	.	.	.
=59	=59	=59	=59	=59	=59	=59	=59
1b-	love	1E-M	newline	voice	.	76.055	E-:maj
=60	=60	=60	=60	=60	=60	=60	=60
4r	.	1E-M	.	voice	.	77.36	E-:maj
8b-	was	.	.	.	.	.	.
[8a	an	.	.	.	.	.	.
4a]	_	.	.	.	.	.	.
4b-	ad-	.	.	.	.	.	.
=61	=61	=61	=61	=61	=61	=61	=61
4.cc	-dic-	1FM	.	voice	(B	78.664	F:maj
8cc	-tion	.	.	.	b)	.	.
2dd	_	.	.	.	.	.	.
=62	=62	=62	=62	=62	=62	=62	=62
4r	.	1FM	.	voice	.	79.969	F:maj
8r	.	.	.	.	.	.	.
[8dd	when	.	.	.	.	.	.
4dd]	_	.	.	.	.	.	.
4b-	we	.	.	.	.	.	.
=63	=63	=63	=63	=63	=63	=63	=63
4cc	cling	1E-M	newline	voice	D	81.274	E-:maj
2.b-	_	.	.	.	.	.	.
=64	=64	=64	=64	=64	=64	=64	=64
4r	.	1E-M	.	voice	.	82.571	E-:maj
8b-	our	.	.	.	.	.	.
[8a	love	.	.	.	.	.	.
4a]	_	.	.	.	.	.	.
4b-	is	.	.	.	.	.	.
=65	=65	=65	=65	=65	=65	=65	=65
1cc	strong	1FM	.	voice	.	83.868	F:maj
=66	=66	=66	=66	=66	=66	=66	=66
4r	.	1FM	.	voice	.	85.165	F:maj
8r	.	.	.	.	.	.	.
4.dd	when	.	.	.	.	.	.
4cc	you	.	.	.	.	.	.
=67	=67	=67	=67	=67	=67	=67	=67
4cc	go	1E-M	newline	voice	.	86.462	E-:maj
2.b-	_	.	.	.	.	.	.
=68	=68	=68	=68	=68	=68	=68	=68
4r	.	1E-M	.	voice	.	87.771	E-:maj
8b-	you're	.	.	.	.	.	.
4.a	gone	.	.	.	.	.	.
4b-	for-	.	.	.	.	.	.
=69	=69	=69	=69	=69	=69	=69	=69
4.cc	-e-	1FM	.	voice	.	89.079	F:maj
8cc	-ver	.	.	.	.	.	.
2dd	_	.	.	.	.	.	.
=70	=70	=70	=70	=70	=70	=70	=70
4r	.	1FM	.	voice	.	90.387	F:maj
8dd	you	.	.	.	.	.	.
4.cc	string	.	.	.	D	.	.
4b-	a-	.	.	.	.	.	.
=71	=71	=71	=71	=71	=71	=71	=71
1b-	-long	1Cmm	newline	voice	.	91.696	C:min7
=72	=72	=72	=72	=72	=72	=72	=72
4r	.	1Cmm	.	voice	.	93.016	C:min7
8dd	you	.	.	.	.	.	.
4.cc	string	.	.	.	D	.	.
4b-	a-	.	.	.	.	.	.
=73	=73	=73	=73	=73	=73	=73	=73
1b-	-long	1Gm	.	voice	.	94.336	G:min
=74	=74	=74	=74	=74	=74	=74	=74
1r	.	1FM	.	voice	.	95.656	F:maj
=75	=75	=75	=75	=75	=75	=75	=75
*>Letter>C	*>Letter>C	*>Letter>C	*>Letter>C	*>Letter>C	*>Letter>C	*>Letter>C	*>Letter>C
*>Label>Chorus	*>Label>Chorus	*>Label>Chorus	*>Label>Chorus	*>Label>Chorus	*>Label>Chorus	*>Label>Chorus	*>Label>Chorus
8dd	kar-	1B-M	newline	voice	.	96.975	B-:maj
8dd	-ma	.	.	.	.	.	.
8dd	kar-	.	.	.	.	.	.
8dd	-ma	.	.	.	.	.	.
8dd	kar-	.	.	.	.	.	.
8dd	-ma	.	.	.	.	.	.
8dd	kar-	.	.	.	.	.	.
8dd	-ma	.	.	.	.	.	.
=76	=76	=76	=76	=76	=76	=76	=76
8cc	kar-	1FMM	.	voice	.	98.271	F:maj7/3
8cc	-ma	.	.	.	.	.	.
8cc	cha-	.	.	.	.	.	.
8cc	-me-	.	.	.	.	.	.
4dd	_	.	.	.	.	.	.
8cc	-le-	.	.	.	.	.	.
8b-	_	.	.	.	.	.	.
=77	=77	=77	=77	=77	=77	=77	=77
1b-	-on	1Gm	.	voice	.	99.566	G:min
=78	=78	=78	=78	=78	=78	=78	=78
4r	.	1Gm	.	voice	.	100.861	G:min
8b-	you	.	.	.	.	.	.
4.a	come	.	.	.	.	.	.
4b-	and	.	.	.	.	.	.
=79	=79	=79	=79	=79	=79	=79	=79
1cc	go	1Cmm	newline	voice	.	102.156	C:min7
=80	=80	=80	=80	=80	=80	=80	=80
4r	.	1Cmm	.	voice	.	103.453	C:min7
8dd	you	.	.	.	.	.	.
8dd	come	.	.	.	.	.	.
4cc	_	.	.	.	.	.	.
4b-	and	.	.	.	.	.	.
=81	=81	=81	=81	=81	=81	=81	=81
[2b-	go	1FM	.	voice	C	104.75	F:sus4
8b-]	_	.	.	.	.	.	.
8cc	_	.	.	.	.	.	.
4dd	_	.	.	.	.	.	.
=82	=82	=82	=82	=82	=82	=82	=82
2cc	_	1FM	.	voice	.	106.047	F:maj
2r	.	.	.	.	.	.	.
=83	=83	=83	=83	=83	=83	=83	=83
8dd	lov-	1B-M	newline	voice	.	107.344	B-:maj
8dd	-ing	.	.	.	.	.	.
8dd	would	.	.	.	.	.	.
8dd	be	.	.	.	.	.	.
8dd	ea-	.	.	.	.	.	.
8dd	-sy	.	.	.	.	.	.
8dd	if	.	.	.	.	.	.
8dd	your	.	.	.	.	.	.
=84	=84	=84	=84	=84	=84	=84	=84
8cc	col-	1Dmm	.	voice	.	108.65	D:min7
8cc	-ors	.	.	.	.	.	.
8cc	were	.	.	.	.	.	.
8cc	like	.	.	.	.	.	.
4dd	_	.	.	.	.	.	.
8cc	my	.	.	.	.	.	.
8b-	_	.	.	.	.	.	.
=85	=85	=85	=85	=85	=85	=85	=85
1b-	dream	1Gm	.	voice	D	109.956	G:min
=86	=86	=86	=86	=86	=86	=86	=86
4r	.	1Gm	.	voice	.	111.262	G:min
4b-	red	.	.	.	.	.	.
4a	gold	.	.	.	.	.	.
4b-	and	.	.	.	.	.	.
=87	=87	=87	=87	=87	=87	=87	=87
1cc	green	1Cmm	newline	voice	D	112.568	C:min7
=88	=88	=88	=88	=88	=88	=88	=88
4r	.	1Cmm	.	voice	.	113.869	C:min7
4dd	red	.	.	.	.	.	.
4cc	gold	.	.	.	.	.	.
4b-	and	.	.	.	.	.	.
=89	=89	=89	=89	=89	=89	=89	=89
[2b-	green	1FM	.	voice	D	115.17	F:sus4
8b-]	_	.	.	.	.	.	.
8cc	_	.	.	.	.	.	.
4dd	_	.	.	.	.	.	.
=90	=90	=90	=90	=90	=90	=90	=90
2cc	_	1FM	.	voice	.	116.471	F:maj
2r	.	.	.	.	.	.	.
=91	=91	=91	=91	=91	=91	=91	=91
*>Letter>D	*>Letter>D	*>Letter>D	*>Letter>D	*>Letter>D	*>Letter>D	*>Letter>D	*>Letter>D
*>Label>Bridge	*>Label>Bridge	*>Label>Bridge	*>Label>Bridge	*>Label>Bridge	*>Label>Bridge	*>Label>Bridge	*>Label>Bridge
4ee-	ev-	1E-M	newline	voice	.	117.772	E-:maj(9)
8ee-	-ry	.	.	.	.	.	.
8ee-	_	.	.	.	.	.	.
[2ff	day	.	.	.	.	.	.
=92	=92	=92	=92	=92	=92	=92	=92
8ff]	_	1E-M	.	voice	.	119.094	E-:maj(9)
4.ee-	is	.	.	.	.	.	.
4dd	like	.	.	.	.	.	.
8ee-	sur-	.	.	.	.	.	.
[8dd	-vi-	.	.	.	(E	.	.
=93	=93	=93	=93	=93	=93	=93	=93
4dd]	_	1Dmm	.	voice	.	120.416	D:min7
[2.cc	-val	.	.	.	e)	.	.
=94	=94	=94	=94	=94	=94	=94	=94
4cc]	_	1Dmm	.	voice	.	121.739	D:min7
2r	.	.	.	.	.	.	.
4r	.	.	.	.	.	.	.
=95	=95	=95	=95	=95	=95	=95	=95
8ee-	you're	1Cm	newline	voice	.	123.061	C:min
4ee-	my	.	.	.	.	.	.
8ee-	lov-	.	.	.	.	.	.
4ff	_	.	.	.	.	.	.
[4ee-	-er	.	.	.	.	.	.
=96	=96	=96	=96	=96	=96	=96	=96
4.ee-]	_	1Cm	.	voice	.	124.365	C:min
4.dd	not	.	.	.	.	.	.
4ee-	my	.	.	.	.	.	.
=97	=97	=97	=97	=97	=97	=97	=97
1dd	ri-	1Gmm	.	voice	(E	125.668	G:min7
=98	=98	=98	=98	=98	=98	=98	=98
2.dd	-val	1Gmm	.	voice	e)	126.972	G:min7
4r	.	.	.	.	.	.	.
=99	=99	=99	=99	=99	=99	=99	=99
4ee-	ev-	1E-M	newline	voice	.	128.275	E-:maj(9)
8ee-	-ry	.	.	.	.	.	.
8ee-	_	.	.	.	.	.	.
[2ff	day	.	.	.	.	.	.
=100	=100	=100	=100	=100	=100	=100	=100
8ff]	_	1E-M	.	voice	.	129.581	E-:maj(9)
4.ee-	is	.	.	.	.	.	.
4dd	like	.	.	.	.	.	.
8ee-	sur-	.	.	.	.	.	.
[8dd	-vi-	.	.	.	(E	.	.
=101	=101	=101	=101	=101	=101	=101	=101
4dd]	_	1Dmm	.	voice	.	130.887	D:min7
[2.cc	-val	.	.	.	e)	.	.
=102	=102	=102	=102	=102	=102	=102	=102
4cc]	_	1Dmm	.	voice	.	132.193	D:min7
2r	.	.	.	.	.	.	.
4r	.	.	.	.	.	.	.
=103	=103	=103	=103	=103	=103	=103	=103
8ee-	you're	1Cm	newline	voice	.	133.499	C:min
4ee-	my	.	.	.	.	.	.
8ee-	lov-	.	.	.	.	.	.
4ff	_	.	.	.	.	.	.
[4ee-	-er	.	.	.	.	.	.
=104	=104	=104	=104	=104	=104	=104	=104
4.ee-]	_	1Cm	.	voice	.	134.795	C:min
4.dd	not	.	.	.	.	.	.
4ee-	my	.	.	.	.	.	.
=105	=105	=105	=105	=105	=105	=105	=105
1dd	ri-	1Gmm	.	voice	(E	136.091	G:min7
=106	=106	=106	=106	=106	=106	=106	=106
1dd	-val	1FM	.	voice	e)	137.387	F:maj
=107	=107	=107	=107	=107	=107	=107	=107
*>Letter>B	*>Letter>B	*>Letter>B	*>Letter>B	*>Letter>B	*>Letter>B	*>Letter>B	*>Letter>B
*>Label>Solo	*>Label>Solo	*>Label>Solo	*>Label>Solo	*>Label>Solo	*>Label>Solo	*>Label>Solo	*>Label>Solo
1r	.	1B-M	newline	harmonica	.	138.684	B-:maj
=108	=108	=108	=108	=108	=108	=108	=108
1r	.	1FM	.	harmonica	.	139.989	F:maj
=109	=109	=109	=109	=109	=109	=109	=109
1r	.	1B-M	.	harmonica	.	141.295	B-:maj
=110	=110	=110	=110	=110	=110	=110	=110
1r	.	1B-M	.	harmonica	.	142.601	B-:maj
=111	=111	=111	=111	=111	=111	=111	=111
1r	.	1B-M	newline	harmonica	.	143.906	B-:maj
=112	=112	=112	=112	=112	=112	=112	=112
1r	.	1FM	.	harmonica	.	145.212	F:maj
=113	=113	=113	=113	=113	=113	=113	=113
1r	.	1B-M	.	harmonica	.	146.518	B-:maj
=114	=114	=114	=114	=114	=114	=114	=114
4r	.	1B-M	.	harmonica	.	147.824	B-:maj
8r	.	.	.	.	.	.	.
[8dd	I'm	.	.	.	.	.	.
4dd]	_	.	.	.	.	.	.
4b-	a	.	.	.	.	.	.
=115	=115	=115	=115	=115	=115	=115	=115
1b-	man	1E-M	newline	voice	.	149.13	E-:maj
=116	=116	=116	=116	=116	=116	=116	=116
4r	.	1E-M	.	voice	.	150.443	E-:maj
8b-	with-	.	.	.	.	.	.
[8a	-out	.	.	.	.	.	.
4a]	_	.	.	.	.	.	.
4b-	con-	.	.	.	.	.	.
=117	=117	=117	=117	=117	=117	=117	=117
4.cc	-vic-	1FM	.	voice	(B	151.755	F:maj
8cc	-tion	.	.	.	b)	.	.
2dd	_	.	.	.	.	.	.
=118	=118	=118	=118	=118	=118	=118	=118
4r	.	1FM	.	voice	.	153.067	F:maj
8r	.	.	.	.	.	.	.
[8dd	I'm	.	.	.	.	.	.
4dd]	_	.	.	.	.	.	.
4b-	a	.	.	.	.	.	.
=119	=119	=119	=119	=119	=119	=119	=119
4cc	man	1E-M	newline	voice	.	154.38	E-:maj
2.b-	_	.	.	.	.	.	.
=120	=120	=120	=120	=120	=120	=120	=120
4r	.	1E-M	.	voice	.	155.669	E-:maj
8b-	who	.	.	.	.	.	.
[8a	does-	.	.	.	.	.	.
4a]	_	.	.	.	.	.	.
4b-	-n't	.	.	.	.	.	.
=121	=121	=121	=121	=121	=121	=121	=121
1cc	know	1FM	.	voice	C	156.958	F:maj
=122	=122	=122	=122	=122	=122	=122	=122
4r	.	1FM	.	voice	.	158.247	F:maj
8r	.	.	.	.	.	.	.
4.dd	how	.	.	.	.	.	.
4cc	to	.	.	.	.	.	.
=123	=123	=123	=123	=123	=123	=123	=123
4cc	sell	1E-M	newline	voice	.	159.536	E-:maj
2.b-	_	.	.	.	.	.	.
=124	=124	=124	=124	=124	=124	=124	=124
4r	.	1E-M	.	voice	.	160.842	E-:maj
8b-	a	.	.	.	.	.	.
4.a	con-	.	.	.	.	.	.
4b-	-tra-	.	.	.	.	.	.
=125	=125	=125	=125	=125	=125	=125	=125
4.cc	-dic-	1FM	.	voice	(B	162.148	F:maj
8cc	-tion	.	.	.	b)	.	.
2dd	_	.	.	.	.	.	.
=126	=126	=126	=126	=126	=126	=126	=126
4r	.	1FM	.	voice	.	163.454	F:maj
8dd	you	.	.	.	.	.	.
4.cc	come	.	.	.	.	.	.
4b-	and	.	.	.	.	.	.
=127	=127	=127	=127	=127	=127	=127	=127
1b-	go	1Cmm	newline	voice	C	164.76	C:min7
=128	=128	=128	=128	=128	=128	=128	=128
4r	.	1Cmm	.	voice	.	166.07	C:min7
8dd	you	.	.	.	.	.	.
4.cc	come	.	.	.	.	.	.
4b-	and	.	.	.	.	.	.
=129	=129	=129	=129	=129	=129	=129	=129
1b-	go	1Gm	.	voice	C	167.379	G:min
=130	=130	=130	=130	=130	=130	=130	=130
4a	_	1FM	.	voice	.	168.689	F:maj
2r	.	.	.	.	.	.	.
4r	.	.	.	.	.	.	.
=131	=131	=131	=131	=131	=131	=131	=131
*>Letter>C	*>Letter>C	*>Letter>C	*>Letter>C	*>Letter>C	*>Letter>C	*>Letter>C	*>Letter>C
*>Label>Chorus	*>Label>Chorus	*>Label>Chorus	*>Label>Chorus	*>Label>Chorus	*>Label>Chorus	*>Label>Chorus	*>Label>Chorus
8dd	kar-	1B-M	newline	voice	.	169.998	B-:maj
8dd	-ma	.	.	.	.	.	.
8dd	kar-	.	.	.	.	.	.
8dd	-ma	.	.	.	.	.	.
8dd	kar-	.	.	.	.	.	.
8dd	-ma	.	.	.	.	.	.
8dd	kar-	.	.	.	.	.	.
8dd	-ma	.	.	.	.	.	.
=132	=132	=132	=132	=132	=132	=132	=132
8cc	kar-	1FMM	.	voice	.	171.303	F:maj7/3
8cc	-ma	.	.	.	.	.	.
8cc	cha-	.	.	.	.	.	.
8cc	-me-	.	.	.	.	.	.
4dd	_	.	.	.	.	.	.
8cc	-le-	.	.	.	.	.	.
8b-	_	.	.	.	.	.	.
=133	=133	=133	=133	=133	=133	=133	=133
1b-	-on	1Gm	.	voice	.	172.608	G:min
=134	=134	=134	=134	=134	=134	=134	=134
4r	.	1Gm	.	voice	.	173.913	G:min
8b-	you	.	.	.	.	.	.
4.a	come	.	.	.	.	.	.
4b-	and	.	.	.	.	.	.
=135	=135	=135	=135	=135	=135	=135	=135
1cc	go	1Cmm	newline	voice	.	175.218	C:min7
=136	=136	=136	=136	=136	=136	=136	=136
4r	.	1Cmm	.	voice	.	176.514	C:min7
8dd	you	.	.	.	.	.	.
8dd	come	.	.	.	.	.	.
4cc	_	.	.	.	.	.	.
4b-	and	.	.	.	.	.	.
=137	=137	=137	=137	=137	=137	=137	=137
[2b-	go	1FM	.	voice	C	177.81	F:sus4
8b-]	_	.	.	.	.	.	.
8cc	_	.	.	.	.	.	.
4dd	_	.	.	.	.	.	.
=138	=138	=138	=138	=138	=138	=138	=138
2cc	_	1FM	.	voice	.	179.106	F:maj
2r	.	.	.	.	.	.	.
=139	=139	=139	=139	=139	=139	=139	=139
8dd	lov-	1B-M	newline	voice	.	180.402	B-:maj
8dd	-ing	.	.	.	.	.	.
8dd	would	.	.	.	.	.	.
8dd	be	.	.	.	.	.	.
8dd	ea-	.	.	.	.	.	.
8dd	-sy	.	.	.	.	.	.
8dd	if	.	.	.	.	.	.
8dd	your	.	.	.	.	.	.
=140	=140	=140	=140	=140	=140	=140	=140
8cc	col-	1Dmm	.	voice	.	181.694	D:min7
8cc	-ers	.	.	.	.	.	.
8cc	were	.	.	.	.	.	.
8cc	like	.	.	.	.	.	.
4dd	_	.	.	.	.	.	.
8cc	my	.	.	.	.	.	.
8b-	_	.	.	.	.	.	.
=141	=141	=141	=141	=141	=141	=141	=141
1b-	dreams	1Gm	.	voice	D	182.987	G:min
=142	=142	=142	=142	=142	=142	=142	=142
4r	.	1Gm	.	voice	.	184.28	G:min
4b-	red	.	.	.	.	.	.
4a	gold	.	.	.	.	.	.
4b-	and	.	.	.	.	.	.
=143	=143	=143	=143	=143	=143	=143	=143
1cc	green	1Cmm	newline	voice	D	185.572	C:min7
=144	=144	=144	=144	=144	=144	=144	=144
4r	.	1Cmm	.	voice	.	186.847	C:min7
4dd	red	.	.	.	.	.	.
4cc	gold	.	.	.	.	.	.
4b-	and	.	.	.	.	.	.
=145	=145	=145	=145	=145	=145	=145	=145
1b-	green	1FM	.	voice	D	188.122	F:sus4
=146	=146	=146	=146	=146	=146	=146	=146
1r	.	1FM	.	voice	.	189.397	F:maj
=147	=147	=147	=147	=147	=147	=147	=147
*>Letter>C	*>Letter>C	*>Letter>C	*>Letter>C	*>Letter>C	*>Letter>C	*>Letter>C	*>Letter>C
*>Label>Chorus	*>Label>Chorus	*>Label>Chorus	*>Label>Chorus	*>Label>Chorus	*>Label>Chorus	*>Label>Chorus	*>Label>Chorus
8dd	kar-	1B-M	newline	voice	.	190.671	B-:maj
8dd	-ma	.	.	.	.	.	.
8dd	kar-	.	.	.	.	.	.
8dd	-ma	.	.	.	.	.	.
8dd	kar-	.	.	.	.	.	.
8dd	-ma	.	.	.	.	.	.
8dd	kar-	.	.	.	.	.	.
8dd	-ma	.	.	.	.	.	.
=148	=148	=148	=148	=148	=148	=148	=148
8cc	kar-	1FMM	.	voice	.	191.95	F:maj7/3
8cc	-ma	.	.	.	.	.	.
8cc	cha-	.	.	.	.	.	.
8cc	-me-	.	.	.	.	.	.
4dd	_	.	.	.	.	.	.
8cc	-le-	.	.	.	.	.	.
8b-	_	.	.	.	.	.	.
=149	=149	=149	=149	=149	=149	=149	=149
1b-	-on	1Gm	.	voice	.	193.229	G:min
=150	=150	=150	=150	=150	=150	=150	=150
4r	.	1Gm	.	voice	.	194.508	G:min
8b-	you	.	.	.	.	.	.
4.a	come	.	.	.	.	.	.
4b-	and	.	.	.	.	.	.
=151	=151	=151	=151	=151	=151	=151	=151
1cc	go	1Cmm	newline	voice	.	195.787	C:min7
=152	=152	=152	=152	=152	=152	=152	=152
4r	.	1Cmm	.	voice	.	197.058	C:min7
8dd	you	.	.	.	.	.	.
8dd	come	.	.	.	.	.	.
4cc	_	.	.	.	.	.	.
4b-	and	.	.	.	.	.	.
=153	=153	=153	=153	=153	=153	=153	=153
[2b-	go	1FM	.	voice	C	198.329	F:sus4
8b-]	_	.	.	.	.	.	.
8cc	_	.	.	.	.	.	.
4dd	_	.	.	.	.	.	.
=154	=154	=154	=154	=154	=154	=154	=154
2cc	_	1FM	.	voice	.	199.6	F:maj
2r	.	.	.	.	.	.	.
=155	=155	=155	=155	=155	=155	=155	=155
8dd	lov-	1B-M	newline	voice	.	200.871	B-:maj
8dd	-ing	.	.	.	.	.	.
8dd	would	.	.	.	.	.	.
8dd	be	.	.	.	.	.	.
8dd	ea-	.	.	.	.	.	.
8dd	-sy	.	.	.	.	.	.
8dd	if	.	.	.	.	.	.
8dd	your	.	.	.	.	.	.
=156	=156	=156	=156	=156	=156	=156	=156
8cc	col-	1Dmm	.	voice	.	202.156	D:min7
8cc	-ors	.	.	.	.	.	.
8cc	were	.	.	.	.	.	.
8cc	like	.	.	.	.	.	.
4dd	_	.	.	.	.	.	.
8cc	my	.	.	.	.	.	.
8b-	_	.	.	.	.	.	.
=157	=157	=157	=157	=157	=157	=157	=157
1b-	dreams	1Gm	.	voice	D	203.441	G:min
=158	=158	=158	=158	=158	=158	=158	=158
4r	.	1Gm	.	voice	.	204.726	G:min
4b-	red	.	.	.	.	.	.
4a	gold	.	.	.	.	.	.
4b-	and	.	.	.	.	.	.
=159	=159	=159	=159	=159	=159	=159	=159
1cc	green	1Cmm	newline	voice	D	206.011	C:min7
=160	=160	=160	=160	=160	=160	=160	=160
4r	.	1Cmm	.	voice	.	207.316	C:min7
4dd	red	.	.	.	.	.	.
4cc	gold	.	.	.	.	.	.
4b-	and	.	.	.	.	.	.
=161	=161	=161	=161	=161	=161	=161	=161
1b-	green	1FM	.	voice	D	208.62	F:sus4
=162	=162	=162	=162	=162	=162	=162	=162
1r	.	1FM	.	voice	.	209.925	F:maj
=163	=163	=163	=163	=163	=163	=163	=163
*>Letter>C	*>Letter>C	*>Letter>C	*>Letter>C	*>Letter>C	*>Letter>C	*>Letter>C	*>Letter>C
*>Label>Chorus	*>Label>Chorus	*>Label>Chorus	*>Label>Chorus	*>Label>Chorus	*>Label>Chorus	*>Label>Chorus	*>Label>Chorus
8dd	kar-	1B-M	newline	voice	.	211.23	B-:maj
8dd	-ma	.	.	.	.	.	.
8dd	kar-	.	.	.	.	.	.
8dd	-ma	.	.	.	.	.	.
8dd	kar-	.	.	.	.	.	.
8dd	-ma	.	.	.	.	.	.
8dd	kar-	.	.	.	.	.	.
8dd	-ma	.	.	.	.	.	.
=164	=164	=164	=164	=164	=164	=164	=164
8cc	kar-	1FMM	.	voice	.	212.527	F:maj7/3
8cc	-ma	.	.	.	.	.	.
8cc	cha-	.	.	.	.	.	.
8cc	-me-	.	.	.	.	.	.
4dd	_	.	.	.	.	.	.
8cc	-le-	.	.	.	.	.	.
8b-	_	.	.	.	.	.	.
=165	=165	=165	=165	=165	=165	=165	=165
1b-	-on	1Gm	.	voice	.	213.825	G:min
=166	=166	=166	=166	=166	=166	=166	=166
4r	.	1Gm	.	voice	.	215.123	G:min
8b-	you	.	.	.	.	.	.
4.a	come	.	.	.	.	.	.
4b-	and	.	.	.	.	.	.
=167	=167	=167	=167	=167	=167	=167	=167
1cc	go	1Cmm	newline	voice	C	216.421	C:min7
=168	=168	=168	=168	=168	=168	=168	=168
4r	.	1Cmm	.	voice	.	217.726	C:min7
8dd	you	.	.	.	.	.	.
8dd	come	.	.	.	.	.	.
4cc	_	.	.	.	.	.	.
4b-	and	.	.	.	.	.	.
=169	=169	=169	=169	=169	=169	=169	=169
[2b-	go	1FM	.	voice	C	219.031	F:sus4
8b-]	_	.	.	.	.	.	.
8cc	_	.	.	.	.	.	.
4dd	_	.	.	.	.	.	.
=170	=170	=170	=170	=170	=170	=170	=170
2cc	_	1FM	.	voice	.	220.336	F:maj
2r	.	.	.	.	.	.	.
=171	=171	=171	=171	=171	=171	=171	=171
8dd	lov-	1B-M	newline	voice	.	221.641	B-:maj
8dd	-ing	.	.	.	.	.	.
8dd	would	.	.	.	.	.	.
8dd	be	.	.	.	.	.	.
8dd	ea-	.	.	.	.	.	.
8dd	-sy	.	.	.	.	.	.
8dd	if	.	.	.	.	.	.
8dd	your	.	.	.	.	.	.
=172	=172	=172	=172	=172	=172	=172	=172
8cc	col-	1Dmm	.	voice	.	222.964	D:min7
8cc	-ors	.	.	.	.	.	.
8cc	were	.	.	.	.	.	.
8cc	like	.	.	.	.	.	.
4dd	_	.	.	.	.	.	.
8cc	my	.	.	.	.	.	.
8b-	_	.	.	.	.	.	.
=173	=173	=173	=173	=173	=173	=173	=173
1b-	dreams	1Gm	.	voice	D	224.288	G:min
=174	=174	=174	=174	=174	=174	=174	=174
4r	.	1Gm	.	voice	.	225.612	G:min
4b-	red	.	.	.	.	.	.
4a	gold	.	.	.	.	.	.
4b-	and	.	.	.	.	.	.
=175	=175	=175	=175	=175	=175	=175	=175
*>Label>>Fadeout	*>Label>>Fadeout	*>Label>>Fadeout	*>Label>>Fadeout	*>Label>>Fadeout	*>Label>>Fadeout	*>Label>>Fadeout	*>Label>>Fadeout
1cc	green	1Cmm	newline	voice	D	226.936	C:min7
=176	=176	=176	=176	=176	=176	=176	=176
4r	.	1Cmm	.	voice	.	228.2	C:min7
4dd	red	.	.	.	.	.	.
4cc	gold	.	.	.	.	.	.
4b-	and	.	.	.	.	.	.
=177	=177	=177	=177	=177	=177	=177	=177
1b-	green	1FM	.	voice	D	229.465	F:sus4
=178	=178	=178	=178	=178	=178	=178	=178
1r	.	1FM	.	voice	.	230.729	F:maj
=179	=179	=179	=179	=179	=179	=179	=179
8dd	kar-	1B-M	newline	voice	.	231.994	B-:maj
8dd	-ma	.	.	.	.	.	.
8dd	kar-	.	.	.	.	.	.
8dd	-ma	.	.	.	.	.	.
8dd	kar-	.	.	.	.	.	.
8dd	-ma	.	.	.	.	.	.
8dd	kar-	.	.	.	.	.	.
8dd	-ma	.	.	.	.	.	.
r;	.	1r;	.	r	.	250.404	N.C.
r;	.	1r;	.	r	.	254.616	N.C.
*-	*-	*-	*-	*-	*-	*-	*-
!!!BillboardChartDate: 1984/04/28
!!!BillboardPeak: 1
!!!BillboardWeeksOnChart: 22
!!!COC: Culture Club
!!!EMD: The original transcribers seemed to have transcribed the album version which is 20 seconds longer than the single version. I've removed these measures -Nat
!!!EMD: There should probably be a "prechorus" section, especially after the solo- Nat
!!!ENC: Nathaniel Condit-Schultz
!!!EST: Awating manual error checking and editing.
!!!OTL: Karma Chameleon
!!!RDF**chordsym: original McGill chord annotation + (implied pitch class set, with bass pitch in first position)
!!!RDF**harmony: **recip + pitch class of root + harmonic quality
!!!RDF**leadinstrument: original McGill primary instrumentation annotation
!!!RDF**phrase: newline = linebreak in original McGill transcription
!!!RDF**timestamp: McGill audio timestamp in seconds
!!!RDT: 2017/01/12/
!!!SampleActualRank: 97
!!!SampleID#: 0979
!!!SampleTargetRank: 99
